!!!Genre:	Skotshne
!!!Mode:	Altered Dorian
!!!Listening/dance:	dance
!!!:	*G:
!!!One_Mode:	no
**kern
*thru
*part1
*staff1
*clefG2
*k[b-]
*g:dor
*M2/4
=1-
*>A
8dL
8g
8b-
8ddJ
=2
8cc#XL
8b-J
4dd
=3
16cc#XLL
16dd
16ee
16ffJJ
16ggLL
16ff
16ee
16ddJJ
=4
16cc#XLL
16dd
16ee
16ddJJ
16cc#LL
16b-
16a
16gJJ
=5
8dL
8g
8b-
8ddJ
=6
8cc#XL
8b-J
4dd
=7
16cc#XLL
16dd
16ee
16ddJJ
16cc#LL
16b-
16a
16b-JJ
=8
4g
4g
=9:|!|:
*>B
*>B
[4gg
16ggLL]
16ff
16aa
16ggJJ
=10
[4ff
16ffLL]
16ee
16gg
16ffJJ
=11
[4ee
16eeLL]
16dd
16ff
16eeJJ
=12
2dd
=13
8cc#XL
(>8qee/
8ddJ)
8cc#L
(>8qee/
8ddJ)
=14
8cc#XL
(>8qee/
8ddJ)
16cc#XLL
16b-
16a
16b-JJ
=15
(>16cc#XLL
16eeJJ)
4dd
8dd
*>B1
=16
2gg
*>B2
=17:|!
2g
*>bM
*G:
=18!|:
*>C
*k[f#]
!LO:TX:a:i:t=G-major
16bLL
16g
16b
16ddJJ
(8ccL
8bJ)
=19
16bLL
16g
16b
16ddJJ
8ccL
8bJ
=20
16bLL
16cc
16dd
16eeJJ
16ffnLL
16ee
16dd
16cc#XJJ
=21
8dd
8r
4gg^
=22
16bLL
16g
16b
16ddJJ
(8ccnL
8bJ)
=23
8dd
8r
(>8qcc#X/
4dd)
*>eM
*g:dor
!LO:TX:a:i:t=G-dorian
=24
16cc#XLL
16dd
16ee
16ddJJ
16cc#LL
16b-X
16a
16b-JJ
=25
4g
4g
=26:|!|:
*>D
*k[b-]
2gg
=27
(>8qff#X/
2gg)
=28
(>8qff#X/
4gg)
(>8qff#/
4gg)
=29
(>8qff#X/
4gg)
(>8qff#/
4gg)
=30
16ggLL
16aa
16bb-
16aaJJ
16ggLL
16ffn
16ee
16ddJJ
=31
16eeLL
16ff
16gg
16ffJJ
16eeLL
16dd
16cc#X
16b-JJ
=32
16cc#XLL
16dd
16ee
16ddJJ
16cc#LL
16b-
16a
16gJJ
=33
(>16cc#XLL
16eeJJ)
4dd
8dd
=34
16ggLL
16aa
16bb-
16aaJJ
16ggLL
16ff
16ee
16ddJJ
=35
16eeLL
16ff
16gg
16ffJJ
16eeLL
16dd
16cc#X
16b-JJ
=36
16cc#XLL
16dd
16ee
16ddJJ
16cc#LL
16b-
16a
16b-JJ
=37
2g
=:|!
*-
